%
O14290 (Fixture for Clevis Op3)
(Solace Branan - MFGT 106 fall 2025 - fixture for Drive/End Clevis Op3)
(Machine)
(  vendor: HAAS)
(  model: TM-1)
(  description: Haas TM-1)
(T6 D=0.5 CR=0. - ZMIN=-0.1875 - flat end mill)
G90 G94 G17
G20
(-Attention- Property 'Safe Retracts' is set to 'Clearance Height'.)
(Ensure the clearance height will clear the part and or fixtures.)
(Raise the Z-axis to a safe height before starting the program.)

(spot and drill hole)
S1000 
F4.0
T02 M06 (Change to spot drill)
G43 H2
G00 X0.946 Y0 Z2.5
M08 (coolant on)
M03 (spindle on clockwise rotation)
G00 Z.210
G01 Z-.4
G00 Z1.5 M05 (back off and stop)
G00 Z1.5 M05 (back off and stop)
M09
M01 (Optional stop, check center)
G00 Z7.0 (raise higher for clearance)
G53 G00 Y0 (bring vise forward to absolute Y zero)

T03 M06 (Change to 5/16 drill)
G43 H3
G00 X0.946 Y0 Z2.5
M08 (coolant on)
M03 (spindle on clockwise rotation)
G00 Z.210
G01 Z-.4
G01 Z.2 F20 (retract)
G01 Z-.4 F10
G01 Z-.8 F4
G01 Z.2 F20 (retract)
G01 Z-.8 F10
G01 Z-1.1 F4
G01 Z.2 F20 (retract)
M09
M01 (Optional stop, check center)
G00 Z7.0 (raise higher for clearance)
G53 G00 Y0 (bring vise forward to absolute Y zero)

(Bore .740 diameter hole)
G54
T6 M6
G43 H6
S600 M3
M08
G0 X0.9578 Y-0.0487 
G0 G43 Z0.5906 H6
G0 Z0.0787
G1 Z0.05 F10.
X0.9581 Y-0.0486 Z0.0444
X0.959 Y-0.0483 Z0.0389
X0.9605 Y-0.0479 Z0.0335
X0.9625 Y-0.0472 Z0.0283
X0.9651 Y-0.0464 Z0.0234
X0.9682 Y-0.0454 Z0.0188
X0.9718 Y-0.0443 Z0.0146
X0.9758 Y-0.043 Z0.0109
X0.9801 Y-0.0416 Z0.0077
X0.9848 Y-0.0401 Z0.005
X0.9897 Y-0.0385 Z0.0028
X0.9949 Y-0.0369 Z0.0013
X1.0001 Y-0.0352 Z0.0003
X1.0055 Y-0.0335 Z0.
X1.0293 Y-0.026
G3 X1.0618 Y0.0369 R0.05
X0.9091 Y0.1158 Z-0.0065 R0.1215
X0.8302 Y-0.0369 Z-0.013 R0.1215
X0.9829 Y-0.1158 Z-0.0195 R0.1215
X1.0618 Y0.0369 Z-0.0259 R0.1215
X0.9091 Y0.1158 Z-0.0324 R0.1215
X0.8302 Y-0.0369 Z-0.0389 R0.1215
X0.9829 Y-0.1158 Z-0.0454 R0.1215
X1.0618 Y0.0369 Z-0.0519 R0.1215
X0.9091 Y0.1158 Z-0.0584 R0.1215
X0.8302 Y-0.0369 Z-0.0649 R0.1215
X0.9829 Y-0.1158 Z-0.0714 R0.1215
X1.0618 Y0.0369 Z-0.0778 R0.1215
X0.9091 Y0.1158 Z-0.0843 R0.1215
X0.8302 Y-0.0369 Z-0.0908 R0.1215
X0.9829 Y-0.1158 Z-0.0973 R0.1215
X1.0618 Y0.0369 Z-0.1038 R0.1215
X0.9091 Y0.1158 Z-0.1103 R0.1215
X0.8302 Y-0.0369 Z-0.1168 R0.1215
X0.9829 Y-0.1158 Z-0.1232 R0.1215
X1.0618 Y0.0369 Z-0.1297 R0.1215
X0.9091 Y0.1158 Z-0.1362 R0.1215
X0.8302 Y-0.0369 Z-0.1427 R0.1215
X0.9829 Y-0.1158 Z-0.1492 R0.1215
X1.0618 Y0.0369 Z-0.1557 R0.1215
X0.9091 Y0.1158 Z-0.1622 R0.1215
X0.8302 Y-0.0369 Z-0.1686 R0.1215
X0.9829 Y-0.1158 Z-0.1751 R0.1215
X1.0618 Y0.0369 Z-0.1816 R0.1215
X0.9266 Y0.1199 Z-0.1875 R0.1215
X0.8261 Y-0.0194 R0.1215
X0.9654 Y-0.1199 R0.1215
X1.0659 Y0.0194 R0.1215
X0.9266 Y0.1199 R0.1215
X0.894 Y0.0998 R0.05
X0.8852 Y0.0626 R0.05
G1 X0.8892 Y0.0379
X0.8901 Y0.0324 Z-0.1872
X0.891 Y0.0269 Z-0.1862
X0.8918 Y0.0216 Z-0.1847
X0.8927 Y0.0165 Z-0.1825
X0.8935 Y0.0116 Z-0.1798
X0.8942 Y0.0071 Z-0.1766
X0.8949 Y0.003 Z-0.1729
X0.8955 Y-0.0007 Z-0.1687
X0.896 Y-0.0039 Z-0.1641
X0.8964 Y-0.0066 Z-0.1592
X0.8968 Y-0.0087 Z-0.154
X0.897 Y-0.0102 Z-0.1486
X0.8972 Y-0.0111 Z-0.1431
Y-0.0114 Z-0.1375
G0 Z0.5906

M5
M9
M30

%
