%
O14290
(Solace Branan - MFGT 106 fall 2025 - fixture for Drive/End Clevis Op3)
(Machine)
(  vendor: HAAS)
(  model: TM-1)
(  description: Haas TM-1)
(T6 D=0.5 CR=0. - ZMIN=-0.2269 - flat end mill)
G90 G94 G17
G20
(-Attention- Property 'Safe Retracts' is set to 'Clearance Height'.)
(Ensure the clearance height will clear the part and or fixtures.)
(Raise the Z-axis to a safe height before starting the program.)

(Bore .740 diameter hole)
G54
T6 M6
G43 H6
S600 M3

M08
G0 X-0.3078 Y0.0487
G0 Z0.5906 
G0 Z0.0394
G1 Z0.0106 F1.
X-0.3081 Y0.0486 Z0.005
X-0.309 Y0.0483 Z-0.0005
X-0.3105 Y0.0479 Z-0.0059
X-0.3125 Y0.0472 Z-0.0111
X-0.3151 Y0.0464 Z-0.016
X-0.3182 Y0.0454 Z-0.0205
X-0.3218 Y0.0443 Z-0.0247
X-0.3258 Y0.043 Z-0.0285
X-0.3301 Y0.0416 Z-0.0317
X-0.3348 Y0.0401 Z-0.0344
X-0.3397 Y0.0385 Z-0.0366
X-0.3449 Y0.0369 Z-0.0381
X-0.3501 Y0.0352 Z-0.0391
X-0.3555 Y0.0335 Z-0.0394
X-0.3793 Y0.026
G3 X-0.4118 Y-0.0369 R0.05
X-0.2591 Y-0.1158 Z-0.0459 R0.1215
X-0.1802 Y0.0369 Z-0.0523 R0.1215
X-0.3329 Y0.1158 Z-0.0588 R0.1215
X-0.4118 Y-0.0369 Z-0.0653 R0.1215
X-0.2591 Y-0.1158 Z-0.0718 R0.1215
X-0.1802 Y0.0369 Z-0.0783 R0.1215
X-0.3329 Y0.1158 Z-0.0848 R0.1215
X-0.4118 Y-0.0369 Z-0.0913 R0.1215
X-0.2591 Y-0.1158 Z-0.0977 R0.1215
X-0.1802 Y0.0369 Z-0.1042 R0.1215
X-0.3329 Y0.1158 Z-0.1107 R0.1215
X-0.4118 Y-0.0369 Z-0.1172 R0.1215
X-0.2591 Y-0.1158 Z-0.1237 R0.1215
X-0.1802 Y0.0369 Z-0.1302 R0.1215
X-0.3329 Y0.1158 Z-0.1367 R0.1215
X-0.4118 Y-0.0369 Z-0.1432 R0.1215
X-0.2591 Y-0.1158 Z-0.1496 R0.1215
X-0.1802 Y0.0369 Z-0.1561 R0.1215
X-0.3329 Y0.1158 Z-0.1626 R0.1215
X-0.4118 Y-0.0369 Z-0.1691 R0.1215
X-0.2591 Y-0.1158 Z-0.1756 R0.1215
X-0.1802 Y0.0369 Z-0.1821 R0.1215
X-0.3329 Y0.1158 Z-0.1886 R0.1215
X-0.4118 Y-0.0369 Z-0.195 R0.1215
X-0.2591 Y-0.1158 Z-0.2015 R0.1215
X-0.1802 Y0.0369 Z-0.208 R0.1215
X-0.3329 Y0.1158 Z-0.2145 R0.1215
X-0.4118 Y-0.0369 Z-0.221 R0.1215
X-0.2766 Y-0.1199 Z-0.2269 R0.1215
X-0.1761 Y0.0194 R0.1215
X-0.3154 Y0.1199 R0.1215
X-0.4159 Y-0.0194 R0.1215
X-0.2766 Y-0.1199 R0.1215
X-0.2352 Y-0.0626 R0.05
G1 X-0.2392 Y-0.0379
X-0.2401 Y-0.0324 Z-0.2266
X-0.241 Y-0.0269 Z-0.2256
X-0.2418 Y-0.0216 Z-0.2241
X-0.2427 Y-0.0165 Z-0.2219
X-0.2435 Y-0.0116 Z-0.2192
X-0.2442 Y-0.0071 Z-0.216
X-0.2449 Y-0.003 Z-0.2122
X-0.2455 Y0.0007 Z-0.208
X-0.246 Y0.0039 Z-0.2035
X-0.2464 Y0.0066 Z-0.1986
X-0.2468 Y0.0087 Z-0.1934
X-0.247 Y0.0102 Z-0.188
X-0.2472 Y0.0111 Z-0.1825
Y0.0114 Z-0.1769
G0 Z0.5906

M5
M9
M30
%
