%
O14290 (Fixture for Clevis Op3)
(Solace Branan - MFGT 106 fall 2025 - fixture for Drive/End Clevis Op3)
(Machine)
(  vendor: HAAS)
(  model: TM-1)
(  description: Haas TM-1)
(T6 D=0.5 CR=0. - ZMIN=-0.2269 - flat end mill)
G90 G94 G17
G20
(-Attention- Property 'Safe Retracts' is set to 'Clearance Height'.)
(Ensure the clearance height will clear the part and or fixtures.)
(Raise the Z-axis to a safe height before starting the program.)

(Bore .740 diameter hole)
G54
T6 M6
G43 H6
S600 M3
M08
G0 X0.3078 Y-0.0487
G0 G43 Z0.5906 H1
G0 Z0.0394
G1 Z0.0106 F1.
X0.3081 Y-0.0486 Z0.005
X0.309 Y-0.0483 Z-0.0005
X0.3105 Y-0.0479 Z-0.0059
X0.3125 Y-0.0472 Z-0.0111
X0.3151 Y-0.0464 Z-0.016
X0.3182 Y-0.0454 Z-0.0205
X0.3218 Y-0.0443 Z-0.0247
X0.3258 Y-0.043 Z-0.0285
X0.3301 Y-0.0416 Z-0.0317
X0.3348 Y-0.0401 Z-0.0344
X0.3397 Y-0.0385 Z-0.0366
X0.3449 Y-0.0369 Z-0.0381
X0.3501 Y-0.0352 Z-0.0391
X0.3555 Y-0.0335 Z-0.0394
X0.3793 Y-0.026
G3 X0.4118 Y0.0369 R0.05
X0.2591 Y0.1158 Z-0.0459 R0.1215
X0.1802 Y-0.0369 Z-0.0523 R0.1215
X0.3329 Y-0.1158 Z-0.0588 R0.1215
X0.4118 Y0.0369 Z-0.0653 R0.1215
X0.2591 Y0.1158 Z-0.0718 R0.1215
X0.1802 Y-0.0369 Z-0.0783 R0.1215
X0.3329 Y-0.1158 Z-0.0848 R0.1215
X0.4118 Y0.0369 Z-0.0913 R0.1215
X0.2591 Y0.1158 Z-0.0977 R0.1215
X0.1802 Y-0.0369 Z-0.1042 R0.1215
X0.3329 Y-0.1158 Z-0.1107 R0.1215
X0.4118 Y0.0369 Z-0.1172 R0.1215
X0.2591 Y0.1158 Z-0.1237 R0.1215
X0.1802 Y-0.0369 Z-0.1302 R0.1215
X0.3329 Y-0.1158 Z-0.1367 R0.1215
X0.4118 Y0.0369 Z-0.1432 R0.1215
X0.2591 Y0.1158 Z-0.1496 R0.1215
X0.1802 Y-0.0369 Z-0.1561 R0.1215
X0.3329 Y-0.1158 Z-0.1626 R0.1215
X0.4118 Y0.0369 Z-0.1691 R0.1215
X0.2591 Y0.1158 Z-0.1756 R0.1215
X0.1802 Y-0.0369 Z-0.1821 R0.1215
X0.3329 Y-0.1158 Z-0.1886 R0.1215
X0.4118 Y0.0369 Z-0.195 R0.1215
X0.2591 Y0.1158 Z-0.2015 R0.1215
X0.1802 Y-0.0369 Z-0.208 R0.1215
X0.3329 Y-0.1158 Z-0.2145 R0.1215
X0.4118 Y0.0369 Z-0.221 R0.1215
X0.2766 Y0.1199 Z-0.2269 R0.1215
X0.1761 Y-0.0194 R0.1215
X0.3154 Y-0.1199 R0.1215
X0.4159 Y0.0194 R0.1215
X0.2766 Y0.1199 R0.1215
X0.2352 Y0.0626 R0.05
G1 X0.2392 Y0.0379
X0.2401 Y0.0324 Z-0.2266
X0.241 Y0.0269 Z-0.2256
X0.2418 Y0.0216 Z-0.2241
X0.2427 Y0.0165 Z-0.2219
X0.2435 Y0.0116 Z-0.2192
X0.2442 Y0.0071 Z-0.216
X0.2449 Y0.003 Z-0.2122
X0.2455 Y-0.0007 Z-0.208
X0.246 Y-0.0039 Z-0.2035
X0.2464 Y-0.0066 Z-0.1986
X0.2468 Y-0.0087 Z-0.1934
X0.247 Y-0.0102 Z-0.188
X0.2472 Y-0.0111 Z-0.1825
Y-0.0114 Z-0.1769
G0 Z0.5906

M5
M9
M30

%
